!!!COM: Charles Ives
!!!OTL: [T251_Ive-w17p6m1-10]
**kern	**kern	**dynam	**kern	**kern	**dynam
*grp:A	*grp:A	*	*grp:B	*grp:B	*
*part3	*part3	*part3	*part2	*part1	*part1
*staff4	*staff3	*	*staff2	*staff1	*
*I"Piano	*	*	*I"Violoncello	*I"Violin	*
*I'Pno.	*	*	*I'Vc.	*I'Vln.	*
*clefF4	*clefG2	*	*clefF4	*clefG2	*
*k[]	*k[]	*	*k[]	*k[]	*
*C:	*C:	*	*C:	*C:	*
*M6/8	*M6/8	*	*M6/8	*M6/8	*
=1	=1	=1	=1	=1	=1
!	!LO:TX:a:B:t=Presto	!	!	!LO:TX:a:B:t=Presto	!
4%3ryy	4%3ryy	.	8GG^L 8D	8a^L 8aa	4ryy
.	.	.	8GG^ 8D#X	8a^ 8aa-X	.
.	.	.	8GG^ 8E	8a^ 8gg	.
.	.	.	8GG^ 8F	8a^ 8gg-X	.
.	.	.	8GG^ 8F#X	8a^ 8ff	.
.	.	.	8GG^J 8G	8a^J 8ee	.
=2	=2	=2	=2	=2	=2
4%3ryy	4%3ryy	.	8GG^L 8A-X	8aL 8ff	.
.	.	.	8GG^ 8G	8a 8ff#X	.
.	.	.	8GG 8G-X	8a 8gg	.
.	.	.	8GG 8F	8a 8gg#X	.
.	.	.	8GG 8E	8a 8aa	.
.	.	.	8GGJ 8E-X	8aJ 8bb-X	.
=3	=3	=3	=3	=3	=3
8ryy	8ryy	4ryy	8r	8r	.
8ryy	8ryy	.	8GGL 8E-X	8aL 8bb-X	.
8ryy	8ryy	.	8GG 8En	8a 8aa	.
4.ryy	4.ryy	.	8GG 8F	8a 8aa-X	.
.	.	.	8GG 8F#X	8a 8gg	.
.	.	.	8GGJ 8G	8aJ 8gg-X	.
=4	=4	=4	=4	=4	=4
8ryy	8ryy	.	8GGL 8A-X	8aL 8ff	.
8ryy	8ryy	.	8GGJ 8G	8aJ 8ee	.
8ryy	8ryy	.	8r	8r	.
4.ryy	4.ryy	.	8GGL 8D#X	8d'L 8dd	.
.	.	.	8GG 8E	8d' 8dd-X	.
.	.	.	8GGJ 8F	8d'J 8cc	.
!!LO:REH:t=5
=5	=5	=5	=5	=5	=5
8ryy	8ryy	.	8r	8r	.
8ryy	8ryy	.	8r	8r	.
8ryy	8ryy	.	8GG 8F#X	8d 8b	.
8ryy	8ryy	.	8GG 8G	8d 8b-X	.
8ryy	8ryy	.	8r	8r	.
8ryy	8ryy	.	8r	8r	.
!!linebreak:original
=6	=6	=6	=6	=6	=6
4r.yy	8ryy	.	8r	8d 8cc#X	.
.	8ryy	.	8r	8r	.
.	8ryy	.	8CC 8D	8r	.
8ryy	8ryy	.	4.r	4.r	.
8ryy	8ryy	.	.	.	.
8ryy	8ryy	.	.	.	.
=7	=7	=7	=7	=7	=7
8ryy	8ryy	.	4.r	4.r	.
8ryy	8ryy	.	.	.	.
8ryy	8ryy	.	.	.	.
8ryy	8ryy	.	8r	8r	.
8ryy	8ryy	.	8r	8r	.
8ryy	8ryy	.	8Cn 8B	8c#X 8e	.
=8	=8	=8	=8	=8	=8
8ryy	8ryy	.	4.r	4.r	.
8ryy	8ryy	.	.	.	.
8ryy	8ryy	.	.	.	.
8ryy	8ryy	.	8C 8B	8c#X^ 8e	.
8ryy	8ryy	.	8r	8r	.
8ryy	8ryy	.	8r	8r	.
=9	=9	=9	=9	=9	=9
8ryy	8ryy	.	8r	8r	.
8r^yy	8ryy	.	8C 8B	8c#X 8e	.
8ryy	8ryy	.	8r	8r	.
8ryy	8ryy	.	8C 8B	8c# 8e	.
8ryy	8ryy	.	8r	8r	.
8ryy	8ryy	.	8r	8r	.
!!LO:REH:t=10
=10	=10	=10	=10	=10	=10
8ryy	8ryy	.	8r	8r	.
8ryy	8ryy	.	8C 8B	8c#X 8e	.
8ryy	8ryy	.	8r	8r	.
8ryy	8ryy	.	8r	8r	.
8ryy	8ryy	.	8C 8B	8c# 8e	.
8ryy	8ryy	.	8r	8r	.
=	=	=	=	=	=
*-	*-	*-	*-	*-	*-
!!!system-decoration: s1,s2[({(s3,s4)})]
!!!EED:Jason Lee
!!!EEV:2021/10/26
